X: 3
T: The Ravelled Hank Of Yarn
R: reel
M: 4/4
L: 1/8
K: Gmaj
|: BBBG AcBA |GBBB GBBB |dAAA d2 eg |1 fdcA AGGA :|2 fdcA AGBc ||: dGGG BGBd |g2 ga agaf |gGGG BG Bd |egdB BAAA |dGGG BGBd |g3 a agaf |g2 ga agag |fdcA BG GG :|


Tune 2386	Setting 15734

